logos/play-black.svg

<?xml version="1.0"?>
<svg xmlns="http://www.w3.org/2000/svg" height="152" viewBox="0 0 121 152" width="121">
  <path d="m695.235643 159.695778 69.764357 43.304222-38.294154 23.769996c.045969-.125078.08385-.250244.112452-.374852.810486-3.620904 1.411596-7.269613 1.999198-10.417822-.435636-2.972106-.672028-5.381923-1.144811-7.754665-1.414973-6.898872-5.801726-12.299332-10.698409-17.4032-.469406-.488142-1.715528-.642617-2.515883-.512858-1.671626.268787-3.113615.163744-3.930854-1.306862-1.502776-2.690962-3.809283-3.438623-6.983684-2.999912-1.202221.163743-2.917748-.117402-3.731611-.831078-1.813461-1.597276-3.50535-1.779557-5.59235-.732214-1.421727.713677-2.701619.522127-4.086198-.330577-.890265-.489003-1.935951-.686219-2.965027-.559201-4.130099.546843-7.017454 2.63844-8.415542 6.28097-.600332 1.549973-1.11097 3.127809-1.529791 4.726948-.584225 2.267699 5.884132.756929 6.221834 0 1.671627-3.577651 4.530608-1.665245 8.62356-.685871 3.562759.852704 6.963422 2.270788 10.42487 3.466428.366019.137199.68791.357266.935436.639528 2.647586 2.999913 4.842651 6.21918 5.460646 10.105782.388358 2.434532.455898 4.924676.769962 7.377745.60111 4.671336-.911797 8.681518-4.082821 12.339496-5.285042 6.101778-11.606829 10.544491-20.306041 11.690699-3.498596.460337-6.65949 1.625081-9.141602 4.201731-.867895.899047-2.505751 1.3841-3.883576 1.621992-3.052998.49291-5.971356 1.526654-8.591147 3.043165-.72606.429442-1.830347 1.32231-1.708774 1.754841.243146.874331 1.040123 1.909316 1.914772 2.283146 1.748909.691846 3.578853 1.197718 5.453893 1.50768 3.508727.667334 7.047847 1.282146 10.600475 1.736304.079948.009825.159951.019113.240005.027866l-36.154828 22.442071v-150.214552l34.388982 21.345973c-.782551.291696-1.537026.679517-2.263239 1.172447-1.526743 1.051245-2.96802 2.202541-4.312458 3.444802-2.826569 2.57047-5.599105 5.08842-9.21252 6.895782-3.991641 1.995822-6.463622 5.286148-6.929651 9.663981-.384981 3.623994-1.026615 7.220181-1.539923 10.831816-.276916 1.927853-.810485 3.871154-.72606 5.789739.199245 4.566293.891534 9.117138 1.013107 13.680342.108065 4.01636 1.810085 7.133674 5.24114 9.565117 1.512907 1.06897 3.133878 2.017449 4.609637 3.126582 1.688511 1.25743 3.407416 2.533397 4.856159 4.016361 1.516284 1.554023 3.225057 2.718767 5.362713 3.336669 5.363308 1.563649 11.159934 1.32927 16.351546-.661155 2.265983-.843436 4.342852-2.035986 5.403237-4.198641 1.404842-2.873243.617994-3.855708-.000001-6.991559-.786846-4.013271-7.858332-2.533395-7.449712-1.643617.219507.475784.236392 1.448979-.074294 1.643619-1.523038.945389-3.211549 1.9433-5.146584 1.235803-2.457223-.881748-4.849742-1.907533-7.162666-3.070971-3.583021-1.828989-5.855758-4.686784-6.531163-8.394194-.530192-2.882511-.715929-5.817544-1.053631-8.727861-.337702-5.882423 1.263007-11.017186 5.994216-15.212738.90475-.851653 1.596142-1.873186 2.026214-2.993733.969206-2.403638 2.725258-3.923676 5.305304-4.828902 2.411194-.846525 4.721078-1.921674 7.139027-2.746573 1.317251-.432421 1.419641-2.686231 2.814609-2.789033 1.161463-.067837 2.083264-1.207916 3.131654-1.687002z" fill-rule="evenodd" transform="translate(-644 -127)"/>
</svg>

<?xml version="1.0" encoding="UTF-8" standalone="no"?>
<svg
   xmlns:dc="http://purl.org/dc/elements/1.1/"
   xmlns:cc="http://creativecommons.org/ns#"
   xmlns:rdf="http://www.w3.org/1999/02/22-rdf-syntax-ns#"
   xmlns:svg="http://www.w3.org/2000/svg"
   xmlns="http://www.w3.org/2000/svg"
   xmlns:sodipodi="http://sodipodi.sourceforge.net/DTD/sodipodi-0.dtd"
   xmlns:inkscape="http://www.inkscape.org/namespaces/inkscape"
   width="121px"
   height="152px"
   viewBox="0 0 121 152"
   version="1.1"
   id="svg11"
   sodipodi:docname="play-black.svg"
   inkscape:version="0.92.2 5c3e80d, 2017-08-06">
  <metadata
     id="metadata15">
    <rdf:RDF>
      <cc:Work
         rdf:about="">
        <dc:format>image/svg+xml</dc:format>
        <dc:type
           rdf:resource="http://purl.org/dc/dcmitype/StillImage" />
        <dc:title>logo-hsr</dc:title>
      </cc:Work>
    </rdf:RDF>
  </metadata>
  <sodipodi:namedview
     pagecolor="#ffffff"
     bordercolor="#666666"
     borderopacity="1"
     objecttolerance="10"
     gridtolerance="10"
     guidetolerance="10"
     inkscape:pageopacity="0"
     inkscape:pageshadow="2"
     inkscape:window-width="1920"
     inkscape:window-height="1016"
     id="namedview13"
     showgrid="false"
     inkscape:zoom="4.3915053"
     inkscape:cx="-37.636776"
     inkscape:cy="58.781272"
     inkscape:window-x="0"
     inkscape:window-y="27"
     inkscape:window-maximized="1"
     inkscape:current-layer="Page-1" />
  <!-- Generator: Sketch 3.7.2 (28276) - http://www.bohemiancoding.com/sketch -->
  <title
     id="title2">logo-hsr</title>
  <desc
     id="desc4">Created with Sketch.</desc>
  <defs
     id="defs6" />
  <g
     id="Page-1"
     stroke="none"
     stroke-width="1"
     fill="none"
     fill-rule="evenodd">
    <g
       id="Desktop-HD"
       transform="translate(-644.000000, -127.000000)"
       fill="#FFFFFF"
       style="fill:#000000;fill-opacity:1">
      <path
         d="M695.235643,159.695778 L765,203 L726.705846,226.769996 C726.751815,226.644918 726.789696,226.519752 726.818298,226.395144 C727.628784,222.77424 728.229894,219.125531 728.817496,215.977322 C728.38186,213.005216 728.145468,210.595399 727.672685,208.222657 C726.257712,201.323785 721.870959,195.923325 716.974276,190.819457 C716.50487,190.331315 715.258748,190.17684 714.458393,190.306599 C712.786767,190.575386 711.344778,190.470343 710.527539,188.999737 C709.024763,186.308775 706.718256,185.561114 703.543855,185.999825 C702.341634,186.163568 700.626107,185.882423 699.812244,185.168747 C697.998783,183.571471 696.306894,183.38919 694.219894,184.436533 C692.798167,185.15021 691.518275,184.95866 690.133696,184.105956 C689.243431,183.616953 688.197745,183.419737 687.168669,183.546755 C683.03857,184.093598 680.151215,186.185195 678.753127,189.827725 C678.152795,191.377698 677.642157,192.955534 677.223336,194.554673 C676.639111,196.822372 683.107468,195.311602 683.44517,194.554673 C685.116797,190.977022 687.975778,192.889428 692.06873,193.868802 C695.631489,194.721506 699.032152,196.13959 702.4936,197.33523 C702.859619,197.472429 703.18151,197.692496 703.429036,197.974758 C706.076622,200.974671 708.271687,204.193938 708.889682,208.08054 C709.27804,210.515072 709.34558,213.005216 709.659644,215.458285 C710.260754,220.129621 708.747847,224.139803 705.576823,227.797781 C700.291781,233.899559 693.969994,238.342272 685.270782,239.48848 C681.772186,239.948817 678.611292,241.113561 676.12918,243.690211 C675.261285,244.589258 673.623429,245.074311 672.245604,245.312203 C669.192606,245.805113 666.274248,246.838857 663.654457,248.355368 C662.928397,248.78481 661.82411,249.677678 661.945683,250.110209 C662.188829,250.98454 662.985806,252.019525 663.860455,252.393355 C665.609364,253.085201 667.439308,253.591073 669.314348,253.901035 C672.823075,254.568369 676.362195,255.183181 679.914823,255.637339 C679.994771,255.647164 680.074774,255.656452 680.154828,255.665205 L644,278.107276 L644,127.892724 L678.388982,149.238697 C677.606431,149.530393 676.851956,149.918214 676.125743,150.411144 C674.599,151.462389 673.157723,152.613685 671.813285,153.855946 C668.986716,156.426416 666.21418,158.944366 662.600765,160.751728 C658.609124,162.74755 656.137143,166.037876 655.671114,170.415709 C655.286133,174.039703 654.644499,177.63589 654.131191,181.247525 C653.854275,183.175378 653.320706,185.118679 653.405131,187.037264 C653.604376,191.603557 654.296665,196.154402 654.418238,200.717606 C654.526303,204.733966 656.228323,207.85128 659.659378,210.282723 C661.172285,211.351693 662.793256,212.300172 664.269015,213.409305 C665.957526,214.666735 667.676431,215.942702 669.125174,217.425666 C670.641458,218.979689 672.350231,220.144433 674.487887,220.762335 C679.851195,222.325984 685.647821,222.091605 690.839433,220.10118 C693.105416,219.257744 695.182285,218.065194 696.24267,215.902539 C697.647512,213.029296 696.860664,212.046831 696.242669,208.91098 C695.455823,204.897709 688.384337,206.377585 688.792957,207.267363 C689.012464,207.743147 689.029349,208.716342 688.718663,208.910982 C687.195625,209.856371 685.507114,210.854282 683.572079,210.146785 C681.114856,209.265037 678.722337,208.239252 676.409413,207.075814 C672.826392,205.246825 670.553655,202.38903 669.87825,198.68162 C669.348058,195.799109 669.162321,192.864076 668.824619,189.953759 C668.486917,184.071336 670.087626,178.936573 674.818835,174.741021 C675.723585,173.889368 676.414977,172.867835 676.845049,171.747288 C677.814255,169.34365 679.570307,167.823612 682.150353,166.918386 C684.561547,166.071861 686.871431,164.996712 689.28938,164.171813 C690.606631,163.739392 690.709021,161.485582 692.103989,161.38278 C693.265452,161.314943 694.187253,160.174864 695.235643,159.695778 Z"
         id="logo-hsr"
         style="fill:#000000;fill-opacity:1" />
    </g>
  </g>
</svg>
